client/src/assets/images/Rank2.svg

<svg xmlns="http://www.w3.org/2000/svg" width="33" height="32" fill="none"><path stroke="#4B3F28" d="M7.5 16h2m14 0h2m-16 1h2m10 0h2m-12 1h2m-2 0h2m6 0h2m-6 2h2m-4-1h2m2 0h2m-12 1h2m14 0h2m-16 1h2m10 0h2m-12 1h2m-2 0h2m6 0h2m-6 2h2m-4-1h2m2 0h2M7 16.5v3m19-3v3"/><path fill="#FFDA57" d="M25.5 16.5h-2v3h2v-3Zm-12 2h-2v3h2v-3Z"/><path fill="#FEBB38" d="M9.5 16.5h-2v3h2v-3Zm6 3h-2v3h2v-3Z"/><path fill="#F8AF23" d="M16.5 20.5h-1v3h1v-3Z"/><path fill="#FEBB38" d="M11.5 17.5h-1v3h1v-3Z"/><path fill="#FFDA57" d="M10.5 17.5h-1v3h1v-3Zm12 0h-1v3h1v-3Zm-5 3h-1v3h1v-3Z"/><path fill="#FFEAA0" d="M23.5 17.5h-1v3h1v-3Zm-2 1h-1v3h1v-3Z"/><path fill="#FFFBEE" d="M20.5 18.5h-1v3h1v-3Z"/><path fill="#FFFBEE" d="M20.5 18.5h-1v3h1v-3Z"/><path fill="#FFF7DB" d="M19.5 19.5h-2v3h2v-3Z"/><path stroke="#4B3F28" d="M7.5 8h2m14 0h2m-16 1h2m10 0h2m-12 1h2m-2 0h2m6 0h2m-6 2h2m-4-1h2m2 0h2m-12 1h2m14 0h2m-16 1h2m10 0h2m-12 1h2m-2 0h2m6 0h2m-6 2h2m-4-1h2m2 0h2M7 8.5v3m19-3v3"/><path fill="#FFDA57" d="M25.5 8.5h-2v3h2v-3Zm-12 2h-2v3h2v-3Z"/><path fill="#FEBB38" d="M9.5 8.5h-2v3h2v-3Zm6 3h-2v3h2v-3Z"/><path fill="#F8AF23" d="M16.5 12.5h-1v3h1v-3Z"/><path fill="#FEBB38" d="M11.5 9.5h-1v3h1v-3Z"/><path fill="#FFDA57" d="M10.5 9.5h-1v3h1v-3Zm12 0h-1v3h1v-3Zm-5 3h-1v3h1v-3Z"/><path fill="#FFEAA0" d="M23.5 9.5h-1v3h1v-3Zm-2 1h-1v3h1v-3Z"/><path fill="#FFFBEE" d="M20.5 10.5h-1v3h1v-3Z"/><path fill="#FFFBEE" d="M20.5 10.5h-1v3h1v-3Z"/><path fill="#FFF7DB" d="M19.5 11.5h-2v3h2v-3Z"/></svg>

<svg width="33" height="32" viewBox="0 0 33 32" fill="none" xmlns="http://www.w3.org/2000/svg">
<path d="M7.5 16H9.5" stroke="#4B3F28"/>
<path d="M23.5 16H25.5" stroke="#4B3F28"/>
<path d="M9.5 17H11.5" stroke="#4B3F28"/>
<path d="M21.5 17H23.5" stroke="#4B3F28"/>
<path d="M11.5 18H13.5" stroke="#4B3F28"/>
<path d="M11.5 18H13.5" stroke="#4B3F28"/>
<path d="M19.5 18H21.5" stroke="#4B3F28"/>
<path d="M15.5 20H17.5" stroke="#4B3F28"/>
<path d="M13.5 19H15.5" stroke="#4B3F28"/>
<path d="M17.5 19H19.5" stroke="#4B3F28"/>
<path d="M7.5 20H9.5" stroke="#4B3F28"/>
<path d="M23.5 20H25.5" stroke="#4B3F28"/>
<path d="M9.5 21H11.5" stroke="#4B3F28"/>
<path d="M21.5 21H23.5" stroke="#4B3F28"/>
<path d="M11.5 22H13.5" stroke="#4B3F28"/>
<path d="M11.5 22H13.5" stroke="#4B3F28"/>
<path d="M19.5 22H21.5" stroke="#4B3F28"/>
<path d="M15.5 24H17.5" stroke="#4B3F28"/>
<path d="M13.5 23H15.5" stroke="#4B3F28"/>
<path d="M17.5 23H19.5" stroke="#4B3F28"/>
<path d="M7 16.5V19.5" stroke="#4B3F28"/>
<path d="M26 16.5V19.5" stroke="#4B3F28"/>
<path d="M25.5 16.5H23.5V19.5H25.5V16.5Z" fill="#FFDA57"/>
<path d="M13.5 18.5H11.5V21.5H13.5V18.5Z" fill="#FFDA57"/>
<path d="M9.5 16.5H7.5V19.5H9.5V16.5Z" fill="#FEBB38"/>
<path d="M15.5 19.5H13.5V22.5H15.5V19.5Z" fill="#FEBB38"/>
<path d="M16.5 20.5H15.5V23.5H16.5V20.5Z" fill="#F8AF23"/>
<path d="M11.5 17.5H10.5V20.5H11.5V17.5Z" fill="#FEBB38"/>
<path d="M10.5 17.5H9.5V20.5H10.5V17.5Z" fill="#FFDA57"/>
<path d="M22.5 17.5H21.5V20.5H22.5V17.5Z" fill="#FFDA57"/>
<path d="M17.5 20.5H16.5V23.5H17.5V20.5Z" fill="#FFDA57"/>
<path d="M23.5 17.5H22.5V20.5H23.5V19V17.5Z" fill="#FFEAA0"/>
<path d="M21.5 18.5H20.5V21.5H21.5V20V18.5Z" fill="#FFEAA0"/>
<path d="M20.5 18.5H19.5V21.5H20.5V20V18.5Z" fill="#FFFBEE"/>
<path d="M20.5 18.5H19.5V21.5H20.5V20V18.5Z" fill="#FFFBEE"/>
<path d="M19.5 19.5H17.5V22.5H19.5V21V19.5Z" fill="#FFF7DB"/>
<path d="M7.5 8H9.5" stroke="#4B3F28"/>
<path d="M23.5 8H25.5" stroke="#4B3F28"/>
<path d="M9.5 9H11.5" stroke="#4B3F28"/>
<path d="M21.5 9H23.5" stroke="#4B3F28"/>
<path d="M11.5 10H13.5" stroke="#4B3F28"/>
<path d="M11.5 10H13.5" stroke="#4B3F28"/>
<path d="M19.5 10H21.5" stroke="#4B3F28"/>
<path d="M15.5 12H17.5" stroke="#4B3F28"/>
<path d="M13.5 11H15.5" stroke="#4B3F28"/>
<path d="M17.5 11H19.5" stroke="#4B3F28"/>
<path d="M7.5 12H9.5" stroke="#4B3F28"/>
<path d="M23.5 12H25.5" stroke="#4B3F28"/>
<path d="M9.5 13H11.5" stroke="#4B3F28"/>
<path d="M21.5 13H23.5" stroke="#4B3F28"/>
<path d="M11.5 14H13.5" stroke="#4B3F28"/>
<path d="M11.5 14H13.5" stroke="#4B3F28"/>
<path d="M19.5 14H21.5" stroke="#4B3F28"/>
<path d="M15.5 16H17.5" stroke="#4B3F28"/>
<path d="M13.5 15H15.5" stroke="#4B3F28"/>
<path d="M17.5 15H19.5" stroke="#4B3F28"/>
<path d="M7 8.5V11.5" stroke="#4B3F28"/>
<path d="M26 8.5V11.5" stroke="#4B3F28"/>
<path d="M25.5 8.5H23.5V11.5H25.5V8.5Z" fill="#FFDA57"/>
<path d="M13.5 10.5H11.5V13.5H13.5V10.5Z" fill="#FFDA57"/>
<path d="M9.5 8.5H7.5V11.5H9.5V8.5Z" fill="#FEBB38"/>
<path d="M15.5 11.5H13.5V14.5H15.5V11.5Z" fill="#FEBB38"/>
<path d="M16.5 12.5H15.5V15.5H16.5V12.5Z" fill="#F8AF23"/>
<path d="M11.5 9.5H10.5V12.5H11.5V9.5Z" fill="#FEBB38"/>
<path d="M10.5 9.5H9.5V12.5H10.5V9.5Z" fill="#FFDA57"/>
<path d="M22.5 9.5H21.5V12.5H22.5V9.5Z" fill="#FFDA57"/>
<path d="M17.5 12.5H16.5V15.5H17.5V12.5Z" fill="#FFDA57"/>
<path d="M23.5 9.5H22.5V12.5H23.5V11V9.5Z" fill="#FFEAA0"/>
<path d="M21.5 10.5H20.5V13.5H21.5V12V10.5Z" fill="#FFEAA0"/>
<path d="M20.5 10.5H19.5V13.5H20.5V12V10.5Z" fill="#FFFBEE"/>
<path d="M20.5 10.5H19.5V13.5H20.5V12V10.5Z" fill="#FFFBEE"/>
<path d="M19.5 11.5H17.5V14.5H19.5V13V11.5Z" fill="#FFF7DB"/>
</svg>
